src/assets/icons/shapes,fancy,filled-star8.svg

<svg width="48" height="48" viewBox="0 0 48 48" fill="none" xmlns="http://www.w3.org/2000/svg">
<path d="M22.1414 5.67663C22.928 3.69731 23.3213 2.70764 24 2.70764C24.6787 2.70764 25.072 3.69731 25.8586 5.67663L27.9047 10.8249C28.2621 11.7245 28.4409 12.1742 28.8314 12.336C29.2219 12.4977 29.6663 12.3061 30.5552 11.9228L35.6423 9.72919C37.5982 8.88583 38.5761 8.46415 39.056 8.94403C39.5359 9.42391 39.1142 10.4018 38.2708 12.3577L36.0772 17.4448C35.6939 18.3337 35.5023 18.7781 35.664 19.1686C35.8258 19.5591 36.2755 19.7379 37.1751 20.0954L42.3234 22.1414C44.3027 22.928 45.2924 23.3213 45.2924 24C45.2924 24.6787 44.3027 25.072 42.3234 25.8586L37.1751 27.9047C36.2755 28.2621 35.8258 28.4409 35.664 28.8314C35.5023 29.2219 35.6939 29.6663 36.0772 30.5552L38.2708 35.6423C39.1142 37.5982 39.5359 38.5761 39.056 39.056C38.5761 39.5359 37.5982 39.1142 35.6423 38.2708L30.5552 36.0772C29.6663 35.6939 29.2219 35.5023 28.8314 35.664C28.4409 35.8258 28.2621 36.2755 27.9046 37.1751L25.8586 42.3234C25.072 44.3027 24.6787 45.2924 24 45.2924C23.3213 45.2924 22.928 44.3027 22.1414 42.3234L20.0953 37.1751C19.7379 36.2755 19.5591 35.8258 19.1686 35.664C18.7781 35.5023 18.3337 35.6939 17.4448 36.0772L12.3576 38.2708C10.4018 39.1142 9.42391 39.5359 8.94403 39.056C8.46415 38.5761 8.88583 37.5982 9.7292 35.6423L11.9228 30.5552C12.3061 29.6663 12.4977 29.2219 12.336 28.8314C12.1742 28.4409 11.7245 28.2621 10.8249 27.9047L5.67663 25.8586C3.69731 25.072 2.70764 24.6787 2.70764 24C2.70764 23.3213 3.69731 22.928 5.67663 22.1414L10.8249 20.0953C11.7245 19.7379 12.1742 19.5591 12.336 19.1686C12.4977 18.7781 12.3061 18.3337 11.9228 17.4448L9.72919 12.3577C8.88583 10.4018 8.46415 9.42391 8.94403 8.94403C9.42391 8.46415 10.4018 8.88583 12.3577 9.7292L17.4448 11.9228C18.3337 12.3061 18.7781 12.4977 19.1686 12.336C19.5591 12.1742 19.7379 11.7245 20.0953 10.8249L22.1414 5.67663Z" fill="black"/>
</svg>

<svg xmlns="http://www.w3.org/2000/svg" width="48" height="48" fill="none" viewBox="0 0 48 48">
  <path fill="#000" d="M22.141 5.677c.787-1.98 1.18-2.97 1.859-2.97s1.072.99 1.859 2.97l2.046 5.148c.357.9.536 1.35.926 1.511.39.162.835-.03 1.724-.413l5.087-2.194c1.956-.843 2.934-1.265 3.414-.785.48.48.058 1.458-.785 3.414l-2.194 5.087c-.383.889-.575 1.333-.413 1.724.162.39.611.569 1.511.926l5.148 2.046c1.98.787 2.97 1.18 2.97 1.859s-.99 1.072-2.97 1.859l-5.148 2.046c-.9.357-1.35.536-1.511.926-.162.39.03.835.413 1.724l2.194 5.087c.843 1.956 1.265 2.934.785 3.414-.48.48-1.458.058-3.414-.785l-5.087-2.194c-.889-.383-1.333-.575-1.724-.413-.39.162-.569.611-.926 1.511l-2.046 5.148c-.787 1.98-1.18 2.97-1.859 2.97s-1.072-.99-1.859-2.97l-2.046-5.148c-.357-.9-.536-1.35-.926-1.511-.39-.162-.835.03-1.724.413l-5.087 2.194c-1.956.843-2.934 1.265-3.414.785-.48-.48-.058-1.458.785-3.414l2.194-5.087c.383-.889.575-1.333.413-1.724-.162-.39-.611-.569-1.511-.926l-5.148-2.046c-1.98-.787-2.97-1.18-2.97-1.859s.99-1.072 2.97-1.859l5.148-2.046c.9-.357 1.35-.536 1.511-.926.162-.39-.03-.835-.413-1.724l-2.194-5.087c-.843-1.956-1.265-2.934-.785-3.414.48-.48 1.458-.058 3.414.785l5.087 2.194c.889.383 1.333.575 1.724.413.39-.162.569-.611.926-1.511l2.046-5.148z"/>
</svg>
